X:1
T:D major William Billings, 1786
T:Isaac Watts, 1709 (Hymn 87, Book 1)     88. 88. (L.M.) 
T:Petersburgh Transcribed from Suffolk Harmony, 1786.
%%score [ 1 2 3 4 ]
L:1/8
Q:1/4=100
M:2/4
K:D
V:1 treble nm="Treble" snm="Tr."
V:2 treble nm="Counter" snm="C."
V:3 treble-8 nm="Tenor" snm="T."
V:4 bass nm="Bass" snm="B."
V:1
"^1. Thus saith the high and lofty one:  \"I sit upon my holy throne;     My name is God, I dwell  on high, Dwell  in       my  own       e –" F2 | %1
 A2 A2 | A2 d2 | A2 F2 | A4 | z2 A2 | c2 e2 | c2 A2 | c2 e2 | A4 | z2 A2 | d2 fa | d2 A2 | B2 A2 | %14
 B2 dc | dc de | (A2 d)e | %17
"^1. – ter– ni  –   ty.             But  I        descend   to            worlds be – low,       On   earth  I       have   a         man – sion    too;        The  humble" A2 A2 | %18
 A4 |: z2 A2 | D2 FG | A2 G2 | FG A2 | G4 | z2 FG/A/ | B2 A2 | F2 Ad | cB A^G | A4 | z2 A2 | %30
 A2 B2 | %31
"^1. spirit          and    con –  trite   Is     an   a     –     bode  of     my  de    –    light,  Is    an          a       –        bode         of    my               de – light." B2 B2 | %32
 A2 A2 | A3 A | B2 A2 | dc d2 | A2 AF | G3 A | B2 AB/c/ | d3 d | cB AA | A4 :| %42
V:2
 D2 | F2 F2 | F2 F2 | D2 D2 | F4 | z2 E2 | A2 A2 | A2 E2 | E2 E2 | A4 | z2 D2 | D2 D2 | D2 D2 | %13
 D2 D2 | G2 A2 | FG AB | A>G AB | AG FE | F4 |: z2 F2 | D2 D2 | D2 B,2 | D2 D2 | D4 | z2 D2 | %25
 D2 D2 | D2 (FG/)A/ | GF ED | E4 | z2 F2 | F2 D2 | D2 E2 | E2 C2 | D3 D | G2 FE | F2 F2 | %36
 F2 FG/A/ | D3 D | D>E FG | F>G AB | AG/G/ FE | F4 :| %42
V:3
"^2. \"The humble soul my words revive, I bid the mourning sinner live, Heal all the broken hearts I find, And ease the  sor   –   rows" A2 | %1
 d2 d2 | d2 A2 | F2 A2 | d4 | z2 c2 | e2 c2 | e2 c2 | A2 c2 | e4 | z2 A2 | B2 A2 | B2 A2 | d2 fa | %14
 d2 f2 | ag fe | d>e fg | %17
"^2. of      the   mind.\"        O      may  thy     par–doning  grace  be    nigh,       Lest we should faint, des – pair,  and       die!       Thus shall our" fe dc | %18
 d4 |: z2 d2 | AB AG | F2 GA/B/ | AG FE | D4 | z2 DE/F/ | G2 F2 | A2 de/f/ | ed cB | A4 | z2 A2 | %30
 dA GF | %31
"^2. bet – ter  thoughts approve   The meth – ods    of    thy  chas–tening love,   The  meth       –      ods  of             thy  chas – tening    love." G2 GA/B/ | %32
 AG FE | F3 A | d2 cd/e/ | A2 A2 | d2 de/f/ | B3 A | d>ed/e/ f/g/ | af dg | fe/f/ dc | d4 :| %42
V:4
 D,2 | D,2 D,2 | D,2 D,2 | D,2 D,2 | D,4 | z2 A,2 | A,2 A,2 | A,2 A,2 | A,2 A,2 | A,4 | z2 F,2 | %11
 G,2 F,2 | G,2 F,2 | G,2 F,2 | G,2 F,2 | D,E, G,G, | F,>E, D,G, | A,2 A,,2 | D,4 |: z2 D,2 | %20
 F,G, F,E, | D,2 E,F,/G,/ | F,E, D,C, | B,,4 | z2 D,2 | D,2 D,2 | D,2 D,2 | E,2 E,2 | A,,4 | %29
 z2 D,2 | D,2 B,,2 | G,,2 E,2 | C,2 A,,2 | D,3 F, | G,2 A,2 | F,2 D,2 | D,2 F,2 | G,3 F, | %38
 (G,2 F,)E, | D,>E, F,G, | A,2 A,,2 | D,4 :| %42

